X: 36388
T: Sean Reid's
R: reel
M: 4/4
K: Gmajor
|:DG G2 BG G2|cAFA cAAG|DG G2 BGBd|cAFG AG G2|
DG G2 BG G2|cA3 dcAd|g3a gfde|fdcA AG G2:|
|:dg g2 gfde|f3e fdcA|dg g2 gfde|fdcA BGBd|
g3a gfde|f3e fdef|g3a gfde|fdcA AG G2:|

